;FLAVOR:Marlin
;TIME:8508
;Filament used: 5.1133m
;Layer height: 0.2
;MINX:48.066
;MINY:44.791
;MINZ:0.2
;MAXX:171.934
;MAXY:173.209
;MAXZ:6
;Generated with Cura_SteamEngine 4.4.0
M140 S50
M105
M190 S50
M104 S200
M105
M109 S200
M82 ;absolute extrusion mode
; Ender 3 Custom Start G-code
G28 ; Home all axes
G29 ; Level the bed
M500 ; Save the settings
G92 E0 ; Reset Extruder
G1 Z2.0 F3000 ; Move Z Axis up little to prevent scratching of Heat Bed
G1 X0.1 Y20 Z0.3 F5000.0 ; Move to start position
G1 X0.1 Y200.0 Z0.3 F1500.0 E15 ; Draw the first line
G1 X0.4 Y200.0 Z0.3 F5000.0 ; Move to side a little
G1 X0.4 Y20 Z0.3 F1500.0 E30 ; Draw the second line
G92 E0 ; Reset Extruder
G1 Z2.0 F3000 ; Move Z Axis up little to prevent scratching of Heat Bed
G92 E0
G92 E0
G1 F2700 E-5
;LAYER_COUNT:30
;LAYER:0
M107
G0 F6000 X66.499 Y49.183 Z0.2
;TYPE:SKIRT
G1 F2700 E0
G1 F1200 X67.105 Y48.468 E0.03117
G1 X67.77 Y47.807 E0.06236
G1 X68.489 Y47.204 E0.09357
G1 X69.582 Y46.465 E0.13745
G1 X69.788 Y46.343 E0.14542
G1 X70.614 Y45.9 E0.17659
G1 X71.476 Y45.529 E0.2078
G1 X72.365 Y45.233 E0.23897
G1 X73.277 Y45.013 E0.27017
G1 X74.205 Y44.872 E0.30139
G1 X75.202 Y44.81 E0.33461
G1 X76.068 Y44.795 E0.36342
G1 X76.469 Y44.795 E0.37676
G1 X77.636 Y44.817 E0.41558
G1 X80.361 Y44.791 E0.50622
G1 X80.863 Y44.797 E0.52292
G1 X81.835 Y44.832 E0.55527
G1 X81.996 Y44.839 E0.56063
G1 X82.861 Y44.883 E0.58943
G1 X85.332 Y44.936 E0.67164
G1 X87.869 Y44.92 E0.75602
G1 X91.075 Y44.799 E0.86273
G1 X91.519 Y44.791 E0.8775
G1 X92.288 Y44.793 E0.90308
G1 X92.469 Y44.795 E0.9091
G1 X93.636 Y44.817 E0.94792
G1 X96.349 Y44.791 E1.03816
G1 X96.848 Y44.797 E1.05476
G1 X97.83 Y44.832 E1.08744
G1 X97.995 Y44.839 E1.09293
G1 X98.86 Y44.883 E1.12174
G1 X101.332 Y44.936 E1.20398
G1 X103.869 Y44.92 E1.28836
G1 X107.075 Y44.799 E1.39507
G1 X107.519 Y44.791 E1.40984
G1 X108.288 Y44.793 E1.43541
G1 X108.469 Y44.795 E1.44143
G1 X109.636 Y44.817 E1.48025
G1 X112.361 Y44.791 E1.57089
G1 X112.863 Y44.797 E1.58759
G1 X113.834 Y44.832 E1.61991
G1 X113.995 Y44.839 E1.62527
G1 X114.86 Y44.883 E1.65407
G1 X117.332 Y44.936 E1.73631
G1 X119.869 Y44.92 E1.82069
G1 X123.075 Y44.799 E1.9274
G1 X123.519 Y44.791 E1.94217
G1 X124.288 Y44.793 E1.96775
G1 X124.469 Y44.795 E1.97377
G1 X125.636 Y44.817 E2.01259
G1 X128.361 Y44.791 E2.10323
G1 X128.863 Y44.797 E2.11993
G1 X129.834 Y44.832 E2.15224
G1 X129.995 Y44.839 E2.1576
G1 X130.86 Y44.883 E2.18641
G1 X133.332 Y44.936 E2.26865
G1 X135.869 Y44.92 E2.35303
G1 X139.075 Y44.799 E2.45974
G1 X139.519 Y44.791 E2.47451
G1 X140.288 Y44.793 E2.50009
G1 X140.469 Y44.795 E2.50611
G1 X141.636 Y44.817 E2.54493
G1 X144.356 Y44.791 E2.6354
G1 X145.293 Y44.821 E2.66658
G1 X146.619 Y45.004 E2.7111
G1 X146.829 Y45.046 E2.71823
G1 X147.74 Y45.269 E2.74942
G1 X148.629 Y45.568 E2.78062
G1 X149.489 Y45.943 E2.81182
G1 X150.314 Y46.389 E2.84301
G1 X151.098 Y46.904 E2.87421
G1 X151.593 Y47.282 E2.89493
G1 X151.761 Y47.418 E2.90212
G1 X152.464 Y48.039 E2.93331
G1 X153.112 Y48.717 E2.96451
G1 X153.7 Y49.448 E2.99571
G1 X154.223 Y50.227 E3.02692
G1 X154.72 Y51.132 E3.06126
G1 X154.79 Y51.275 E3.06655
G1 X155.166 Y52.134 E3.09774
G1 X155.467 Y53.022 E3.12893
G1 X155.745 Y54.216 E3.1697
G1 X155.871 Y54.938 E3.19408
G1 X156.371 Y57.586 E3.28371
G1 X156.902 Y60.015 E3.3664
G1 X157.511 Y62.467 E3.45044
G1 X158.182 Y64.878 E3.53367
G1 X158.931 Y67.299 E3.61796
G1 X159.741 Y69.677 E3.70152
G1 X160.622 Y72.043 E3.78549
G1 X161.563 Y74.367 E3.86888
G1 X162.572 Y76.668 E3.95245
G1 X163.655 Y78.961 E4.03679
G1 X164.785 Y81.186 E4.11979
G1 X165.987 Y83.4 E4.20358
G1 X167.258 Y85.586 E4.28769
G1 X168.587 Y87.731 E4.37161
G1 X169.995 Y89.871 E4.45681
G1 X170.502 Y90.724 E4.48982
G1 X170.607 Y90.92 E4.49721
G1 X171.015 Y91.764 E4.52839
G1 X171.348 Y92.641 E4.55959
G1 X171.606 Y93.543 E4.5908
G1 X171.786 Y94.463 E4.62198
G1 X171.875 Y95.231 E4.64769
G1 X171.892 Y95.442 E4.65473
G1 X171.927 Y96.19 E4.67964
G1 X171.933 Y96.679 E4.6959
G1 X171.934 Y96.814 E4.70039
G1 X171.933 Y123.058 E5.57327
G1 X171.932 Y123.21 E5.57833
G1 X171.922 Y123.933 E5.60238
G1 X171.869 Y124.87 E5.63359
G1 X171.737 Y125.798 E5.66477
G1 X171.595 Y126.449 E5.68693
G1 X171.543 Y126.657 E5.69406
G1 X171.277 Y127.556 E5.72524
G1 X170.935 Y128.43 E5.75646
G1 X170.52 Y129.271 E5.78765
G1 X170.035 Y130.074 E5.81885
G1 X169.483 Y130.832 E5.85004
G1 X168.772 Y131.642 E5.88589
G1 X166.831 Y133.645 E5.97866
G1 X165.085 Y135.532 E6.06416
G1 X163.435 Y137.421 E6.14758
G1 X161.836 Y139.358 E6.23112
G1 X160.277 Y141.36 E6.31552
G1 X158.804 Y143.366 E6.39829
G1 X157.358 Y145.457 E6.48285
G1 X155.983 Y147.57 E6.5667
G1 X154.679 Y149.703 E6.64985
G1 X153.443 Y151.861 E6.73257
G1 X152.232 Y154.12 E6.81782
G1 X151.111 Y156.361 E6.90116
G1 X150.051 Y158.641 E6.98478
G1 X149.055 Y160.95 E7.06842
G1 X148.1 Y163.348 E7.15427
G1 X147.621 Y164.635 E7.19995
G1 X147.277 Y165.579 E7.23336
G1 X146.951 Y166.374 E7.26194
G1 X146.853 Y166.589 E7.2698
G1 X146.428 Y167.425 E7.30099
G1 X145.934 Y168.222 E7.33218
G1 X145.373 Y168.974 E7.36339
G1 X144.437 Y169.986 E7.40923
G1 X144.328 Y170.09 E7.41425
G1 X143.623 Y170.707 E7.44541
G1 X142.867 Y171.263 E7.47662
G1 X142.067 Y171.752 E7.5078
G1 X141.228 Y172.171 E7.53899
G1 X140.478 Y172.474 E7.5659
G1 X140.268 Y172.55 E7.57333
G1 X139.374 Y172.832 E7.60451
G1 X138.458 Y173.036 E7.63572
G1 X137.529 Y173.161 E7.6669
G1 X136.525 Y173.207 E7.70032
G1 X135.741 Y173.207 E7.7264
G1 X135.531 Y173.205 E7.73338
G1 X134.364 Y173.183 E7.77221
G1 X131.651 Y173.209 E7.86244
G1 X131.152 Y173.203 E7.87904
G1 X130.17 Y173.168 E7.91172
G1 X130.005 Y173.161 E7.91722
G1 X129.14 Y173.117 E7.94603
G1 X126.669 Y173.064 E8.02823
G1 X124.131 Y173.08 E8.11265
G1 X120.926 Y173.201 E8.21932
G1 X120.482 Y173.209 E8.23409
G1 X119.712 Y173.207 E8.2597
G1 X119.531 Y173.205 E8.26572
G1 X118.364 Y173.183 E8.30454
G1 X115.651 Y173.209 E8.39478
G1 X115.152 Y173.203 E8.41138
G1 X114.17 Y173.168 E8.44406
G1 X114.005 Y173.161 E8.44955
G1 X113.14 Y173.117 E8.47836
G1 X110.669 Y173.064 E8.56057
G1 X108.131 Y173.08 E8.64498
G1 X104.926 Y173.201 E8.75166
G1 X104.482 Y173.209 E8.76643
G1 X103.712 Y173.207 E8.79204
G1 X103.531 Y173.205 E8.79806
G1 X102.364 Y173.183 E8.83688
G1 X99.651 Y173.209 E8.92712
G1 X99.152 Y173.203 E8.94372
G1 X98.17 Y173.168 E8.9764
G1 X98.005 Y173.161 E8.98189
G1 X97.14 Y173.117 E9.0107
G1 X94.669 Y173.064 E9.0929
G1 X92.131 Y173.08 E9.17732
G1 X88.926 Y173.201 E9.28399
G1 X88.482 Y173.209 E9.29876
G1 X87.712 Y173.207 E9.32437
G1 X87.531 Y173.205 E9.33039
G1 X86.364 Y173.183 E9.36922
G1 X83.644 Y173.209 E9.45969
G1 X82.707 Y173.179 E9.49087
G1 X81.371 Y172.994 E9.53573
G1 X81.162 Y172.952 E9.54282
G1 X80.251 Y172.729 E9.57401
G1 X79.363 Y172.428 E9.6052
G1 X78.503 Y172.053 E9.6364
G1 X77.679 Y171.606 E9.66758
G1 X76.895 Y171.09 E9.6988
G1 X76.391 Y170.704 E9.71991
G1 X76.22 Y170.565 E9.72724
G1 X75.518 Y169.943 E9.75844
G1 X74.871 Y169.263 E9.78966
G1 X74.285 Y168.531 E9.82084
G1 X73.764 Y167.751 E9.85204
G1 X73.31 Y166.93 E9.88325
G1 X72.926 Y166.067 E9.91466
G1 X72.705 Y165.507 E9.93469
G1 X72.629 Y165.308 E9.94177
G1 X71.698 Y162.807 E10.03053
G1 X70.753 Y160.474 E10.11425
G1 X69.744 Y158.173 E10.19782
G1 X68.662 Y155.881 E10.28212
G1 X67.526 Y153.645 E10.36553
G1 X66.319 Y151.426 E10.44955
G1 X65.07 Y149.274 E10.53231
G1 X63.727 Y147.107 E10.6171
G1 X62.34 Y145.003 E10.70092
G1 X60.914 Y142.969 E10.78354
G1 X59.394 Y140.923 E10.86831
G1 X57.86 Y138.977 E10.95073
G1 X56.217 Y137.012 E11.03592
G1 X54.57 Y135.15 E11.1186
G1 X52.828 Y133.289 E11.20339
G1 X51.383 Y131.822 E11.27187
G1 X50.754 Y131.126 E11.30308
G1 X50.187 Y130.379 E11.33427
G1 X49.808 Y129.795 E11.35742
G1 X49.675 Y129.575 E11.36597
G1 X49.224 Y128.752 E11.39719
G1 X48.845 Y127.894 E11.42838
G1 X48.541 Y127.007 E11.45957
G1 X48.313 Y126.097 E11.49077
G1 X48.12 Y124.724 E11.53689
G1 X48.104 Y124.515 E11.54386
G1 X48.073 Y123.806 E11.56746
G1 X48.067 Y123.304 E11.58416
G1 X48.066 Y123.173 E11.58852
G1 X48.067 Y96.919 E12.46173
G1 X48.068 Y96.764 E12.46689
G1 X48.078 Y96.056 E12.49044
G1 X48.131 Y95.119 E12.52165
G1 X48.264 Y94.191 E12.55283
G1 X48.449 Y93.373 E12.58073
G1 X48.504 Y93.167 E12.58782
G1 X48.785 Y92.273 E12.61899
G1 X49.14 Y91.405 E12.65018
G1 X49.568 Y90.57 E12.68138
G1 X49.917 Y89.997 E12.7037
G1 X50.361 Y89.316 E12.73074
G1 X50.443 Y89.193 E12.73566
G1 X50.988 Y88.382 E12.76815
G1 X52.34 Y86.24 E12.8524
G1 X53.627 Y84.068 E12.93637
G1 X54.844 Y81.874 E13.01982
G1 X55.996 Y79.651 E13.1031
G1 X57.103 Y77.36 E13.18772
G1 X58.121 Y75.089 E13.2705
G1 X59.094 Y72.747 E13.35485
G1 X59.995 Y70.393 E13.43868
G1 X60.825 Y68.014 E13.52249
G1 X61.585 Y65.63 E13.60571
G1 X62.289 Y63.187 E13.69027
G1 X62.903 Y60.8 E13.77225
G1 X63.467 Y58.32 E13.85684
G1 X63.96 Y55.831 E13.94123
G1 X63.985 Y55.682 E13.94626
G1 X64.01 Y55.535 E13.95122
G1 X64.258 Y54.166 E13.99749
G1 X64.465 Y53.251 E14.02869
G1 X64.748 Y52.357 E14.05988
G1 X65.107 Y51.491 E14.09106
G1 X65.375 Y50.953 E14.11105
G1 X65.48 Y50.756 E14.11848
G1 X65.956 Y49.948 E14.14967
G1 X66.499 Y49.183 E14.18087
G0 F6000 X66.836 Y49.402
G1 F1200 X67.434 Y48.702 E14.21149
G1 X68.09 Y48.056 E14.24211
G1 X68.8 Y47.47 E14.27273
G1 X69.786 Y46.809 E14.31221
G1 X69.992 Y46.687 E14.32018
G1 X70.803 Y46.253 E14.35077
G1 X71.65 Y45.891 E14.38141
G1 X72.524 Y45.604 E14.412
G1 X73.421 Y45.393 E14.44265
G1 X74.332 Y45.261 E14.47327
G1 X75.209 Y45.21 E14.50249
G1 X76.075 Y45.195 E14.53129
G1 X76.462 Y45.195 E14.54417
G1 X77.598 Y45.217 E14.58196
G1 X80.365 Y45.19 E14.67399
G1 X80.848 Y45.197 E14.69006
G1 X81.82 Y45.232 E14.72241
G1 X81.976 Y45.239 E14.7276
G1 X82.797 Y45.281 E14.75494
G1 X85.362 Y45.336 E14.84028
G1 X87.886 Y45.32 E14.92423
G1 X91.09 Y45.199 E15.03087
G1 X91.518 Y45.191 E15.04511
G1 X92.287 Y45.193 E15.07068
G1 X92.462 Y45.195 E15.0765
G1 X93.598 Y45.217 E15.11429
G1 X96.353 Y45.19 E15.20593
G1 X96.834 Y45.197 E15.22193
G1 X97.816 Y45.232 E15.25461
G1 X97.975 Y45.239 E15.25991
G1 X98.797 Y45.281 E15.28728
G1 X101.362 Y45.336 E15.37261
G1 X103.886 Y45.32 E15.45656
G1 X107.09 Y45.199 E15.56321
G1 X107.518 Y45.191 E15.57744
G1 X108.287 Y45.193 E15.60302
G1 X108.462 Y45.195 E15.60884
G1 X109.598 Y45.217 E15.64663
G1 X112.365 Y45.19 E15.73867
G1 X112.849 Y45.197 E15.75477
G1 X113.82 Y45.232 E15.78708
G1 X113.975 Y45.239 E15.79224
G1 X114.797 Y45.281 E15.81962
G1 X117.362 Y45.336 E15.90495
G1 X119.886 Y45.32 E15.9889
G1 X123.09 Y45.199 E16.09554
G1 X123.518 Y45.191 E16.10978
G1 X124.287 Y45.193 E16.13536
G1 X124.462 Y45.195 E16.14118
G1 X125.598 Y45.217 E16.17897
G1 X128.365 Y45.19 E16.271
G1 X128.849 Y45.197 E16.2871
G1 X129.82 Y45.232 E16.31942
G1 X129.975 Y45.239 E16.32458
G1 X130.797 Y45.281 E16.35196
G1 X133.362 Y45.336 E16.43729
G1 X135.886 Y45.32 E16.52124
G1 X139.09 Y45.199 E16.62788
G1 X139.518 Y45.191 E16.64212
G1 X140.287 Y45.193 E16.66769
G1 X140.462 Y45.195 E16.67352
G1 X141.598 Y45.217 E16.71131
G1 X144.359 Y45.19 E16.80314
G1 X145.28 Y45.222 E16.83379
G1 X146.541 Y45.396 E16.87613
G1 X146.751 Y45.438 E16.88325
G1 X147.645 Y45.657 E16.91387
G1 X148.517 Y45.954 E16.94451
G1 X149.359 Y46.325 E16.97511
G1 X150.167 Y46.767 E17.00574
G1 X150.932 Y47.278 E17.03634
G1 X151.342 Y47.593 E17.05354
G1 X151.51 Y47.729 E17.06073
G1 X152.199 Y48.339 E17.09133
G1 X152.833 Y49.006 E17.12194
G1 X153.407 Y49.726 E17.15257
G1 X153.917 Y50.493 E17.1832
G1 X154.361 Y51.308 E17.21407
G1 X154.431 Y51.451 E17.21937
G1 X154.799 Y52.294 E17.24996
G1 X155.093 Y53.167 E17.2806
G1 X155.351 Y54.285 E17.31876
G1 X155.478 Y55.012 E17.34331
G1 X155.975 Y57.64 E17.43226
G1 X156.517 Y60.124 E17.51683
G1 X157.124 Y62.565 E17.60049
G1 X157.801 Y64.998 E17.68448
G1 X158.557 Y67.441 E17.76954
G1 X159.363 Y69.809 E17.85274
G1 X160.241 Y72.166 E17.93639
G1 X161.193 Y74.516 E18.02072
G1 X162.221 Y76.863 E18.10594
G1 X163.294 Y79.134 E18.18949
G1 X164.434 Y81.379 E18.27323
G1 X165.632 Y83.586 E18.35675
G1 X166.921 Y85.802 E18.44202
G1 X168.245 Y87.939 E18.52563
G1 X169.66 Y90.09 E18.61127
G1 X170.15 Y90.912 E18.64309
G1 X170.255 Y91.108 E18.65049
G1 X170.654 Y91.938 E18.68112
G1 X170.979 Y92.799 E18.71173
G1 X171.229 Y93.685 E18.74235
G1 X171.401 Y94.59 E18.77299
G1 X171.477 Y95.263 E18.79551
G1 X171.494 Y95.474 E18.80256
G1 X171.527 Y96.195 E18.82656
G1 X171.533 Y96.684 E18.84283
G1 X171.534 Y96.814 E18.84715
G1 X171.533 Y123.058 E19.72003
G1 X171.532 Y123.205 E19.72492
G1 X171.522 Y123.928 E19.74897
G1 X171.469 Y124.847 E19.77958
G1 X171.337 Y125.758 E19.8102
G1 X171.207 Y126.352 E19.83043
G1 X171.155 Y126.56 E19.83756
G1 X170.893 Y127.443 E19.86819
G1 X170.555 Y128.299 E19.8988
G1 X170.145 Y129.123 E19.92941
G1 X169.664 Y129.908 E19.96003
G1 X169.117 Y130.649 E19.99067
G1 X168.485 Y131.364 E20.02241
G1 X166.512 Y133.401 E20.11673
G1 X164.789 Y135.262 E20.20108
G1 X163.14 Y137.149 E20.28443
G1 X161.532 Y139.099 E20.36849
G1 X159.955 Y141.122 E20.45381
G1 X158.463 Y143.154 E20.53765
G1 X157.032 Y145.225 E20.62138
G1 X155.66 Y147.333 E20.70503
G1 X154.325 Y149.517 E20.79017
G1 X153.086 Y151.679 E20.87305
G1 X151.879 Y153.931 E20.95803
G1 X150.748 Y156.192 E21.04212
G1 X149.692 Y158.463 E21.12542
G1 X148.685 Y160.797 E21.20996
G1 X147.734 Y163.186 E21.29549
G1 X147.246 Y164.496 E21.34198
G1 X146.901 Y165.442 E21.37547
G1 X146.587 Y166.208 E21.40301
G1 X146.489 Y166.423 E21.41087
G1 X146.071 Y167.244 E21.44151
G1 X145.584 Y168.025 E21.47212
G1 X145.031 Y168.761 E21.50274
G1 X144.161 Y169.696 E21.54522
G1 X144.052 Y169.8 E21.55023
G1 X143.359 Y170.406 E21.58085
G1 X142.616 Y170.95 E21.61148
G1 X141.829 Y171.427 E21.64208
G1 X141.003 Y171.834 E21.67271
G1 X140.342 Y172.098 E21.69638
G1 X140.132 Y172.174 E21.70381
G1 X139.254 Y172.45 E21.73442
G1 X138.355 Y172.648 E21.76504
G1 X137.442 Y172.767 E21.79566
G1 X136.525 Y172.807 E21.82619
G1 X135.741 Y172.807 E21.85227
G1 X135.538 Y172.805 E21.85902
G1 X134.402 Y172.783 E21.89681
G1 X131.647 Y172.81 E21.98845
G1 X131.166 Y172.803 E22.00445
G1 X130.184 Y172.768 E22.03713
G1 X130.025 Y172.761 E22.04242
G1 X129.204 Y172.719 E22.06977
G1 X126.639 Y172.664 E22.1551
G1 X124.114 Y172.68 E22.23908
G1 X120.911 Y172.801 E22.34569
G1 X120.483 Y172.809 E22.35993
G1 X119.713 Y172.807 E22.38554
G1 X119.538 Y172.805 E22.39136
G1 X118.402 Y172.783 E22.42915
G1 X115.647 Y172.81 E22.52078
G1 X115.166 Y172.803 E22.53678
G1 X114.184 Y172.768 E22.56947
G1 X114.025 Y172.761 E22.57476
G1 X113.204 Y172.719 E22.6021
G1 X110.639 Y172.664 E22.68743
G1 X108.114 Y172.68 E22.77142
G1 X104.911 Y172.801 E22.87803
G1 X104.483 Y172.809 E22.89226
G1 X103.713 Y172.807 E22.91787
G1 X103.538 Y172.805 E22.9237
G1 X102.402 Y172.783 E22.96149
G1 X99.647 Y172.81 E23.05312
G1 X99.166 Y172.803 E23.06912
G1 X98.184 Y172.768 E23.1018
G1 X98.025 Y172.761 E23.1071
G1 X97.204 Y172.719 E23.13444
G1 X94.639 Y172.664 E23.21977
G1 X92.114 Y172.68 E23.30376
G1 X88.911 Y172.801 E23.41036
G1 X88.483 Y172.809 E23.4246
G1 X87.713 Y172.807 E23.45021
G1 X87.538 Y172.805 E23.45603
G1 X86.402 Y172.783 E23.49382
G1 X83.641 Y172.81 E23.58566
G1 X82.72 Y172.778 E23.61631
G1 X81.45 Y172.602 E23.65895
G1 X81.241 Y172.56 E23.66604
G1 X80.347 Y172.34 E23.69667
G1 X79.475 Y172.043 E23.7273
G1 X78.633 Y171.671 E23.75792
G1 X77.826 Y171.228 E23.78854
G1 X77.061 Y170.716 E23.81916
G1 X76.643 Y170.393 E23.83673
G1 X76.472 Y170.254 E23.84406
G1 X75.783 Y169.643 E23.87469
G1 X75.151 Y168.975 E23.90527
G1 X74.578 Y168.253 E23.93593
G1 X74.07 Y167.486 E23.96653
G1 X73.631 Y166.676 E23.99717
G1 X73.298 Y165.92 E24.02465
G1 X73.077 Y165.36 E24.04467
G1 X73.004 Y165.169 E24.05147
G1 X72.074 Y162.673 E24.14006
G1 X71.123 Y160.325 E24.22432
G1 X70.095 Y157.978 E24.30954
G1 X69.036 Y155.736 E24.39201
G1 X67.876 Y153.452 E24.47721
G1 X66.667 Y151.228 E24.56141
G1 X65.401 Y149.049 E24.64523
G1 X64.068 Y146.898 E24.72939
G1 X62.685 Y144.799 E24.813
G1 X61.23 Y142.723 E24.89731
G1 X59.714 Y140.683 E24.98185
G1 X58.151 Y138.702 E25.06578
G1 X56.54 Y136.774 E25.14934
G1 X54.86 Y134.876 E25.23365
G1 X53.103 Y132.998 E25.31918
G1 X51.668 Y131.541 E25.3872
G1 X51.051 Y130.858 E25.41781
G1 X50.496 Y130.123 E25.44845
G1 X50.15 Y129.588 E25.46964
