;FLAVOR:Marlin
;TIME:9440
;Filament used: 6.00635m
;Layer height: 0.2
;MINX:37.272
;MINY:65.887
;MINZ:0.2
;MAXX:180.237
;MAXY:160.539
;MAXZ:17.6
;Generated with Cura_SteamEngine 4.4.0
M140 S50
M105
M190 S50
M104 S200
M105
M109 S200
M82 ;absolute extrusion mode
; Ender 3 Custom Start G-code
G28 ; Home all axes
G29 ; Level the bed
M500 ; Save the settings
G92 E0 ; Reset Extruder
G1 Z2.0 F3000 ; Move Z Axis up little to prevent scratching of Heat Bed
G1 X0.1 Y20 Z0.3 F5000.0 ; Move to start position
G1 X0.1 Y200.0 Z0.3 F1500.0 E15 ; Draw the first line
G1 X0.4 Y200.0 Z0.3 F5000.0 ; Move to side a little
G1 X0.4 Y20 Z0.3 F1500.0 E30 ; Draw the second line
G92 E0 ; Reset Extruder
G1 Z2.0 F3000 ; Move Z Axis up little to prevent scratching of Heat Bed
G92 E0
G92 E0
G1 F2700 E-5
;LAYER_COUNT:88
;LAYER:0
M107
G0 F6000 X42.699 Y67.486 Z0.2
;TYPE:SKIRT
G1 F2700 E0
G1 F1200 X43.527 Y67.045 E0.0312
G1 X44.389 Y66.676 E0.06239
G1 X45.279 Y66.382 E0.09356
G1 X46.192 Y66.164 E0.12478
G1 X47.119 Y66.026 E0.15596
G1 X48.055 Y65.966 E0.18715
G1 X48.875 Y65.98 E0.21443
G1 X49.301 Y66.003 E0.22862
G1 X49.467 Y66.013 E0.23415
G1 X51.297 Y66.14 E0.29516
G1 X53.815 Y66.242 E0.37898
G1 X56.304 Y66.273 E0.46177
G1 X58.863 Y66.232 E0.54689
G1 X61.357 Y66.122 E0.62992
G1 X61.953 Y66.078 E0.6498
G1 X62.088 Y66.068 E0.6543
G1 X63.479 Y65.983 E0.70066
G1 X64.417 Y65.966 E0.73186
G1 X65.308 Y66.024 E0.76156
G1 X65.969 Y66.094 E0.78366
G1 X66.129 Y66.112 E0.78902
G1 X67.45 Y66.271 E0.83327
G1 X69.908 Y66.498 E0.91537
G1 X72.46 Y66.661 E1.00043
G1 X74.947 Y66.749 E1.0832
G1 X77.473 Y66.768 E1.16721
G1 X79.992 Y66.714 E1.25102
G1 X82.528 Y66.589 E1.33547
G1 X85.024 Y66.395 E1.41873
G1 X87.75 Y66.103 E1.50992
G1 X88.22 Y66.045 E1.52567
G1 X89.155 Y65.97 E1.55687
G1 X90.229 Y65.984 E1.59259
G1 X92.65 Y66.132 E1.67327
G1 X95.207 Y66.219 E1.75836
G1 X97.73 Y66.232 E1.84228
G1 X100.21 Y66.176 E1.92478
G1 X102.662 Y66.037 E2.00647
G1 X102.77 Y66.031 E2.01007
G1 X103.623 Y65.991 E2.03847
G1 X104.237 Y65.979 E2.05889
G1 X104.79 Y65.984 E2.07729
G1 X104.945 Y65.987 E2.08244
G1 X106.516 Y66.023 E2.13471
G1 X109.014 Y66.01 E2.21779
G1 X111.354 Y65.92 E2.29568
G1 X111.446 Y65.917 E2.29874
G1 X112.376 Y65.889 E2.32969
G1 X113.305 Y65.9 E2.36059
G1 X113.746 Y65.924 E2.37528
G1 X113.907 Y65.934 E2.38064
G1 X115.737 Y66.061 E2.44166
G1 X118.255 Y66.163 E2.52547
G1 X120.744 Y66.194 E2.60826
G1 X123.302 Y66.153 E2.69335
G1 X125.805 Y66.042 E2.77669
G1 X126.407 Y65.999 E2.79676
G1 X126.52 Y65.991 E2.80053
G1 X127.911 Y65.905 E2.84688
G1 X128.849 Y65.887 E2.87809
G1 X129.748 Y65.945 E2.90805
G1 X130.409 Y66.015 E2.93016
G1 X130.569 Y66.033 E2.93551
G1 X131.89 Y66.192 E2.97976
G1 X134.348 Y66.419 E3.06187
G1 X136.9 Y66.582 E3.14692
G1 X139.387 Y66.67 E3.22969
G1 X141.913 Y66.689 E3.31371
G1 X144.432 Y66.635 E3.39751
G1 X146.968 Y66.51 E3.48196
G1 X149.464 Y66.316 E3.56523
G1 X152.15 Y66.028 E3.65507
G1 X152.664 Y65.965 E3.6723
G1 X153.599 Y65.891 E3.70349
G1 X154.671 Y65.905 E3.73915
G1 X157.092 Y66.053 E3.81982
G1 X159.647 Y66.14 E3.90485
G1 X162.17 Y66.153 E3.98877
G1 X164.649 Y66.097 E4.07124
G1 X167.101 Y65.958 E4.15293
G1 X167.203 Y65.952 E4.15633
G1 X168.047 Y65.912 E4.18443
G1 X168.985 Y65.908 E4.21563
G1 X169.92 Y65.983 E4.24683
G1 X170.845 Y66.138 E4.27802
G1 X171.753 Y66.371 E4.3092
G1 X172.639 Y66.681 E4.34042
G1 X173.494 Y67.065 E4.37159
G1 X174.314 Y67.52 E4.40278
G1 X175.092 Y68.044 E4.43398
G1 X175.823 Y68.632 E4.46518
G1 X176.501 Y69.28 E4.49638
G1 X177.121 Y69.983 E4.52755
G1 X177.679 Y70.737 E4.55875
G1 X178.171 Y71.536 E4.58996
G1 X178.593 Y72.373 E4.62114
G1 X178.943 Y73.244 E4.65236
G1 X179.216 Y74.141 E4.68354
G1 X179.413 Y75.058 E4.71474
G1 X179.53 Y75.988 E4.74592
G1 X179.566 Y76.666 E4.7685
G1 X179.575 Y77.089 E4.78257
G1 X179.577 Y77.318 E4.79019
G1 X179.592 Y107.429 E5.79168
G1 X179.599 Y109.02 E5.8446
G1 X179.67 Y111.522 E5.92785
G1 X179.814 Y114.04 E6.01174
G1 X180.029 Y116.555 E6.09569
G1 X180.114 Y117.326 E6.12149
G1 X180.135 Y117.534 E6.12844
G1 X180.167 Y117.885 E6.14017
G1 X180.206 Y118.507 E6.16089
G1 X180.213 Y118.711 E6.16768
G1 X180.218 Y118.979 E6.1766
G1 X180.221 Y119.283 E6.18671
G1 X180.222 Y119.386 E6.19014
G1 X180.237 Y148.731 E7.16616
G1 X180.236 Y148.879 E7.17108
G1 X180.227 Y149.577 E7.1943
G1 X180.221 Y149.828 E7.20265
G1 X180.22 Y149.856 E7.20358
G1 X180.147 Y150.791 E7.23477
G1 X179.994 Y151.716 E7.26595
G1 X179.763 Y152.625 E7.29715
G1 X179.455 Y153.511 E7.32835
G1 X179.073 Y154.367 E7.35952
G1 X178.62 Y155.188 E7.39071
G1 X178.098 Y155.968 E7.42193
G1 X177.511 Y156.7 E7.45314
G1 X176.865 Y157.379 E7.48431
G1 X176.163 Y158.001 E7.5155
G1 X175.41 Y158.561 E7.54671
G1 X174.613 Y159.054 E7.57788
G1 X173.776 Y159.478 E7.60909
G1 X172.907 Y159.829 E7.64026
G1 X172.01 Y160.105 E7.67148
G1 X171.094 Y160.303 E7.70265
G1 X170.163 Y160.423 E7.73387
G1 X169.226 Y160.463 E7.76506
G1 X168.63 Y160.447 E7.78489
G1 X167.527 Y160.387 E7.82163
G1 X167.37 Y160.377 E7.82686
G1 X166.752 Y160.335 E7.84747
G1 X164.242 Y160.234 E7.93102
G1 X161.715 Y160.204 E8.01507
G1 X159.23 Y160.245 E8.09773
G1 X156.676 Y160.36 E8.18277
G1 X156.247 Y160.39 E8.19707
G1 X156.095 Y160.4 E8.20214
G1 X155.261 Y160.447 E8.22992
G1 X154.323 Y160.459 E8.26112
G1 X153.384 Y160.392 E8.29243
G1 X152.184 Y160.254 E8.33261
G1 X149.614 Y159.996 E8.41851
G1 X147.063 Y159.812 E8.50358
G1 X144.604 Y159.704 E8.58545
G1 X142.044 Y159.664 E8.6706
G1 X139.564 Y159.696 E8.75309
G1 X137.031 Y159.801 E8.83742
G1 X134.512 Y159.976 E8.9214
G1 X131.771 Y160.246 E9.01301
G1 X130.482 Y160.393 E9.05616
G1 X129.546 Y160.46 E9.08737
G1 X128.624 Y160.447 E9.11804
G1 X128.211 Y160.424 E9.13179
G1 X128.048 Y160.414 E9.13723
G1 X126.187 Y160.283 E9.19928
G1 X123.703 Y160.178 E9.28197
G1 X121.179 Y160.143 E9.36593
G1 X118.657 Y160.18 E9.44982
G1 X116.1 Y160.289 E9.53494
G1 X114.118 Y160.422 E9.60101
G1 X113.331 Y160.447 E9.6272
G1 X113.118 Y160.446 E9.63428
G1 X112.91 Y160.443 E9.6412
G1 X110.617 Y160.389 E9.71749
G1 X108.116 Y160.401 E9.80067
G1 X104.576 Y160.535 E9.9185
G1 X103.562 Y160.527 E9.95222
G1 X102.441 Y160.466 E9.98956
G1 X102.285 Y160.456 E9.99476
G1 X101.667 Y160.414 E10.01537
G1 X99.157 Y160.313 E10.09892
G1 X96.63 Y160.283 E10.18297
G1 X94.146 Y160.324 E10.2656
G1 X91.591 Y160.439 E10.35067
G1 X91.162 Y160.469 E10.36497
G1 X91.009 Y160.479 E10.37007
G1 X90.174 Y160.526 E10.39789
G1 X89.236 Y160.538 E10.42909
G1 X88.297 Y160.471 E10.4604
G1 X87.09 Y160.332 E10.50081
G1 X84.529 Y160.075 E10.58641
G1 X81.978 Y159.891 E10.67148
G1 X79.519 Y159.783 E10.75335
G1 X76.959 Y159.743 E10.8385
G1 X74.479 Y159.775 E10.92099
G1 X71.946 Y159.88 E11.00531
G1 X69.427 Y160.055 E11.0893
G1 X66.686 Y160.325 E11.18091
G1 X65.397 Y160.472 E11.22406
G1 X64.461 Y160.539 E11.25527
G1 X63.539 Y160.526 E11.28594
G1 X63.126 Y160.503 E11.29969
G1 X62.963 Y160.493 E11.30513
G1 X61.102 Y160.362 E11.36718
G1 X58.618 Y160.257 E11.44987
G1 X56.094 Y160.222 E11.53382
G1 X53.572 Y160.259 E11.61772
G1 X51.015 Y160.368 E11.70284
G1 X49.033 Y160.501 E11.76891
G1 X48.096 Y160.524 E11.80008
G1 X47.159 Y160.467 E11.83131
G1 X46.232 Y160.33 E11.86247
G1 X45.319 Y160.115 E11.89367
G1 X44.428 Y159.823 E11.92486
G1 X43.565 Y159.455 E11.95606
G1 X42.736 Y159.016 E11.98726
G1 X41.948 Y158.508 E12.01844
G1 X41.206 Y157.934 E12.04964
G1 X40.515 Y157.3 E12.08084
G1 X39.881 Y156.608 E12.11205
G1 X39.309 Y155.866 E12.14321
G1 X38.801 Y155.077 E12.17442
G1 X38.363 Y154.248 E12.20561
G1 X37.997 Y153.384 E12.23682
G1 X37.706 Y152.493 E12.26799
G1 X37.491 Y151.58 E12.29919
G1 X37.356 Y150.652 E12.33038
G1 X37.301 Y149.761 E12.36007
G1 X37.29 Y149.247 E12.37717
G1 X37.287 Y149.018 E12.38479
G1 X37.272 Y119.638 E13.36197
G1 X37.273 Y119.47 E13.36756
G1 X37.283 Y118.791 E13.39014
G1 X37.292 Y118.493 E13.40006
G1 X37.34 Y117.345 E13.43828
G1 X37.348 Y117.185 E13.4436
G1 X37.368 Y116.838 E13.45516
G1 X37.439 Y114.287 E13.54004
G1 X37.437 Y111.762 E13.62403
G1 X37.365 Y109.245 E13.70778
G1 X37.325 Y108.495 E13.73276
G1 X37.315 Y108.275 E13.74008
G1 X37.296 Y107.705 E13.75905
G1 X37.291 Y107.448 E13.7676
G1 X37.288 Y107.145 E13.77768
G1 X37.287 Y107.042 E13.7811
G1 X37.272 Y77.636 E14.75915
G1 X37.273 Y77.465 E14.76484
G1 X37.283 Y76.799 E14.78699
G1 X37.337 Y75.863 E14.81818
G1 X37.471 Y74.934 E14.84939
G1 X37.683 Y74.021 E14.88057
G1 X37.972 Y73.129 E14.91175
G1 X38.337 Y72.264 E14.94298
G1 X38.773 Y71.434 E14.97416
G1 X39.279 Y70.644 E15.00537
G1 X39.85 Y69.9 E15.03656
G1 X40.482 Y69.208 E15.06773
G1 X41.171 Y68.571 E15.09894
G1 X41.912 Y67.996 E15.13014
G1 X42.699 Y67.486 E15.16133
G0 F6000 X43.078 Y67.73
G1 F1200 X43.899 Y67.313 E15.19195
G1 X44.753 Y66.969 E15.22258
G1 X45.633 Y66.7 E15.25318
G1 X46.534 Y66.509 E15.28382
G1 X47.448 Y66.397 E15.31444
G1 X48.368 Y66.364 E15.34506
G1 X48.853 Y66.379 E15.3612
G1 X49.279 Y66.402 E15.37539
G1 X49.439 Y66.412 E15.38072
G1 X51.287 Y66.54 E15.44233
G1 X53.795 Y66.642 E15.52582
G1 X56.305 Y66.673 E15.60931
G1 X58.853 Y66.632 E15.69407
G1 X61.402 Y66.52 E15.77893
G1 X61.982 Y66.477 E15.79827
G1 X62.112 Y66.468 E15.80261
G1 X63.503 Y66.383 E15.84896
G1 X64.424 Y66.367 E15.87959
G1 X65.266 Y66.422 E15.90766
G1 X65.927 Y66.492 E15.92977
G1 X66.081 Y66.509 E15.93492
G1 X67.401 Y66.668 E15.97914
G1 X69.879 Y66.897 E16.06191
G1 X72.457 Y67.061 E16.14783
G1 X74.93 Y67.149 E16.23013
G1 X77.479 Y67.168 E16.31492
G1 X80.021 Y67.114 E16.39948
G1 X82.543 Y66.989 E16.48347
G1 X85.031 Y66.796 E16.56647
G1 X87.842 Y66.494 E16.6605
G1 X88.269 Y66.442 E16.67481
G1 X89.187 Y66.37 E16.70543
G1 X90.205 Y66.383 E16.73929
G1 X92.649 Y66.532 E16.82073
G1 X95.192 Y66.619 E16.90536
G1 X97.737 Y66.632 E16.99001
G1 X100.213 Y66.576 E17.07238
G1 X102.685 Y66.436 E17.15474
G1 X102.788 Y66.431 E17.15816
G1 X103.641 Y66.391 E17.18657
G1 X104.234 Y66.379 E17.20629
G1 X104.787 Y66.384 E17.22469
G1 X104.935 Y66.387 E17.22961
G1 X106.508 Y66.423 E17.28194
G1 X109.032 Y66.41 E17.36589
G1 X111.37 Y66.32 E17.44371
G1 X111.458 Y66.317 E17.44664
G1 X112.388 Y66.289 E17.47759
G1 X113.283 Y66.3 E17.50736
G1 X113.724 Y66.324 E17.52205
G1 X113.879 Y66.333 E17.52721
G1 X115.727 Y66.461 E17.58882
G1 X118.235 Y66.563 E17.67231
G1 X120.745 Y66.594 E17.7558
G1 X123.292 Y66.553 E17.84052
G1 X125.851 Y66.44 E17.92572
G1 X126.436 Y66.398 E17.94522
G1 X126.545 Y66.39 E17.94886
G1 X127.936 Y66.304 E17.99521
G1 X128.856 Y66.287 E18.02582
G1 X129.706 Y66.343 E18.05415
G1 X130.367 Y66.413 E18.07626
G1 X130.521 Y66.43 E18.08141
G1 X131.841 Y66.589 E18.12563
G1 X134.319 Y66.818 E18.2084
G1 X136.897 Y66.982 E18.29432
G1 X139.37 Y67.07 E18.37662
G1 X141.919 Y67.089 E18.46141
G1 X144.461 Y67.035 E18.54597
G1 X146.983 Y66.91 E18.62996
G1 X149.471 Y66.717 E18.71296
G1 X152.233 Y66.421 E18.80535
G1 X152.712 Y66.362 E18.8214
G1 X153.63 Y66.29 E18.85203
G1 X154.646 Y66.304 E18.88582
G1 X157.089 Y66.453 E18.96723
G1 X159.632 Y66.54 E19.05186
G1 X162.177 Y66.553 E19.13651
G1 X164.652 Y66.497 E19.21885
G1 X167.124 Y66.357 E19.3012
G1 X167.222 Y66.352 E19.30446
G1 X168.066 Y66.312 E19.33256
G1 X168.987 Y66.308 E19.3632
G1 X169.904 Y66.385 E19.3938
G1 X170.812 Y66.54 E19.42444
G1 X171.702 Y66.774 E19.45505
G1 X172.569 Y67.084 E19.48567
G1 X173.406 Y67.468 E19.5163
G1 X174.206 Y67.924 E19.54693
G1 X174.963 Y68.447 E19.57753
G1 X175.673 Y69.034 E19.60817
G1 X176.329 Y69.68 E19.63879
G1 X176.926 Y70.38 E19.66939
G1 X177.46 Y71.13 E19.70001
G1 X177.927 Y71.924 E19.73065
G1 X178.324 Y72.754 E19.76125
G1 X178.647 Y73.617 E19.7919
G1 X178.894 Y74.504 E19.82253
G1 X179.063 Y75.409 E19.85315
G1 X179.166 Y76.675 E19.89539
G1 X179.175 Y77.098 E19.90946
G1 X179.177 Y77.318 E19.91678
G1 X179.192 Y107.43 E20.91831
G1 X179.198 Y108.993 E20.9703
G1 X179.272 Y111.554 E21.05551
G1 X179.417 Y114.098 E21.14026
G1 X179.63 Y116.593 E21.22355
G1 X179.716 Y117.37 E21.24955
G1 X179.736 Y117.571 E21.25627
G1 X179.768 Y117.922 E21.26799
G1 X179.806 Y118.52 E21.28792
G1 X179.813 Y118.724 E21.29471
G1 X179.818 Y118.983 E21.30333
G1 X179.821 Y119.287 E21.31344
G1 X179.822 Y119.387 E21.31676
G1 X179.837 Y148.732 E22.29278
G1 X179.836 Y148.874 E22.29751
G1 X179.827 Y149.572 E22.32072
G1 X179.821 Y149.813 E22.32874
G1 X179.82 Y149.841 E22.32967
G1 X179.747 Y150.759 E22.3603
G1 X179.595 Y151.667 E22.39092
G1 X179.365 Y152.558 E22.42153
G1 X179.058 Y153.426 E22.45215
G1 X178.677 Y154.265 E22.4828
G1 X178.225 Y155.066 E22.51339
G1 X177.705 Y155.826 E22.54402
G1 X177.121 Y156.538 E22.57465
G1 X176.477 Y157.196 E22.60527
G1 X175.779 Y157.796 E22.63588
G1 X175.031 Y158.333 E22.66651
G1 X174.239 Y158.803 E22.69714
G1 X173.41 Y159.203 E22.72775
G1 X172.549 Y159.529 E22.75838
G1 X171.663 Y159.779 E22.78899
G1 X170.759 Y159.952 E22.81961
G1 X169.843 Y160.045 E22.85023
G1 X168.651 Y160.047 E22.88988
G1 X167.548 Y159.987 E22.92662
G1 X167.397 Y159.978 E22.93165
G1 X166.796 Y159.937 E22.95168
G1 X164.226 Y159.834 E23.03723
G1 X161.748 Y159.804 E23.11966
G1 X159.17 Y159.847 E23.20541
G1 X156.67 Y159.959 E23.28865
G1 X156.219 Y159.991 E23.30368
G1 X156.072 Y160 E23.30858
G1 X155.238 Y160.047 E23.33637
G1 X154.318 Y160.059 E23.36697
G1 X153.43 Y159.994 E23.39658
G1 X152.271 Y159.861 E23.43538
G1 X149.647 Y159.597 E23.5231
G1 X147.111 Y159.414 E23.60766
G1 X144.592 Y159.304 E23.69153
G1 X142.045 Y159.264 E23.77625
G1 X139.542 Y159.296 E23.85951
G1 X137.022 Y159.4 E23.94339
G1 X134.481 Y159.577 E24.02811
G1 X131.745 Y159.847 E24.11956
G1 X130.436 Y159.996 E24.16337
G1 X129.518 Y160.06 E24.19398
G1 X128.647 Y160.048 E24.22295
G1 X128.234 Y160.025 E24.23671
G1 X128.076 Y160.015 E24.24198
G1 X126.231 Y159.885 E24.30349
G1 X123.69 Y159.778 E24.38808
G1 X121.18 Y159.743 E24.47157
G1 X118.632 Y159.78 E24.55633
G1 X116.098 Y159.889 E24.64069
G1 X114.091 Y160.023 E24.70759
G1 X113.333 Y160.047 E24.73281
G1 X113.12 Y160.046 E24.7399
G1 X112.919 Y160.043 E24.74658
G1 X110.624 Y159.989 E24.82294
G1 X108.099 Y160.001 E24.90692
G1 X104.561 Y160.135 E25.02468
G1 X103.584 Y160.127 E25.05718
G1 X102.463 Y160.066 E25.09452
G1 X102.312 Y160.057 E25.09955
G1 X101.711 Y160.016 E25.11958
G1 X99.141 Y159.913 E25.20513
G1 X96.663 Y159.883 E25.28755
G1 X94.086 Y159.926 E25.37328
G1 X91.585 Y160.038 E25.45654
G1 X91.134 Y160.07 E25.47158
G1 X90.987 Y160.079 E25.47648
G1 X90.152 Y160.126 E25.5043
G1 X89.231 Y160.138 E25.53493
G1 X88.343 Y160.073 E25.56455
G1 X87.177 Y159.939 E25.60358
G1 X84.562 Y159.676 E25.691
G1 X82.026 Y159.493 E25.77556
G1 X79.507 Y159.383 E25.85943
G1 X76.96 Y159.343 E25.94415
G1 X74.457 Y159.375 E26.02741
G1 X71.937 Y159.479 E26.11129
G1 X69.396 Y159.656 E26.19601
G1 X66.66 Y159.926 E26.28745
G1 X65.351 Y160.075 E26.33127
G1 X64.433 Y160.139 E26.36188
G1 X63.562 Y160.127 E26.39085
G1 X63.149 Y160.104 E26.40461
G1 X62.991 Y160.094 E26.40988
G1 X61.146 Y159.964 E26.47139
G1 X58.605 Y159.857 E26.55598
G1 X56.095 Y159.822 E26.63947
G1 X53.547 Y159.859 E26.72423
G1 X51.013 Y159.968 E26.80859
G1 X49.006 Y160.102 E26.87549
G1 X48.086 Y160.124 E26.9061
G1 X47.167 Y160.066 E26.93672
G1 X46.257 Y159.928 E26.96734
G1 X45.362 Y159.711 E26.99797
G1 X44.489 Y159.418 E27.02859
G1 X43.645 Y159.05 E27.05922
G1 X42.836 Y158.611 E27.08983
G1 X42.069 Y158.102 E27.12045
G1 X41.348 Y157.53 E27.15106
G1 X40.68 Y156.896 E27.18169
G1 X40.069 Y156.208 E27.2123
G1 X39.52 Y155.468 E27.24294
G1 X39.038 Y154.684 E27.27355
G1 X38.625 Y153.861 E27.30418
G1 X38.285 Y153.006 E27.33478
G1 X38.021 Y152.124 E27.3654
G1 X37.835 Y151.222 E27.39603
G1 X37.727 Y150.308 E27.42665
G1 X37.7 Y149.753 E27.44513
G1 X37.689 Y149.239 E27.46223
G1 X37.687 Y149.017 E27.46961
G1 X37.672 Y119.637 E28.44679
G1 X37.673 Y119.476 E28.45215
G1 X37.683 Y118.797 E28.47473
G1 X37.691 Y118.51 E28.48428
G1 X37.739 Y117.362 E28.5225
G1 X37.747 Y117.207 E28.52766
G1 X37.768 Y116.836 E28.54002
G1 X37.839 Y114.298 E28.62447
G1 X37.837 Y111.785 E28.70805
G1 X37.763 Y109.214 E28.7936
G1 X37.724 Y108.474 E28.81825
G1 X37.715 Y108.262 E28.8253
G1 X37.696 Y107.692 E28.84427
G1 X37.691 Y107.444 E28.85252
G1 X37.688 Y107.141 E28.8626
G1 X37.687 Y107.041 E28.86593
G1 X37.672 Y77.635 E29.84397
G1 X37.673 Y77.471 E29.84943
G1 X37.683 Y76.805 E29.87158
