;FLAVOR:Marlin
;TIME:2947
;Filament used: 1.69238m
;Layer height: 0.2
;MINX:70.066
;MINY:33.607
;MINZ:0.2
;MAXX:151.263
;MAXY:185.209
;MAXZ:3
;Generated with Cura_SteamEngine 4.4.0
M140 S50
M105
M190 S50
M104 S200
M105
M109 S200
M82 ;absolute extrusion mode
; Ender 3 Custom Start G-code
G28 ; Home all axes
G29 ; Level the bed
M500 ; Save the settings
G92 E0 ; Reset Extruder
G1 Z2.0 F3000 ; Move Z Axis up little to prevent scratching of Heat Bed
G1 X0.1 Y20 Z0.3 F5000.0 ; Move to start position
G1 X0.1 Y200.0 Z0.3 F1500.0 E15 ; Draw the first line
G1 X0.4 Y200.0 Z0.3 F5000.0 ; Move to side a little
G1 X0.4 Y20 Z0.3 F1500.0 E30 ; Draw the second line
G92 E0 ; Reset Extruder
G1 Z2.0 F3000 ; Move Z Axis up little to prevent scratching of Heat Bed
G92 E0
G92 E0
G1 F2700 E-5
;LAYER_COUNT:15
;LAYER:0
M107
G0 F6000 X71.918 Y39.402 Z0.2
;TYPE:SKIRT
G1 F2700 E0
G1 F1200 X72.42 Y38.61 E0.03119
G1 X72.987 Y37.863 E0.06238
G1 X73.56 Y37.225 E0.0909
G1 X73.694 Y37.087 E0.0973
G1 X74.376 Y36.443 E0.1285
G1 X75.11 Y35.859 E0.15969
G1 X75.891 Y35.339 E0.1909
G1 X76.713 Y34.888 E0.22209
G1 X77.843 Y34.407 E0.26293
G1 X78.053 Y34.331 E0.27036
G1 X78.947 Y34.049 E0.30154
G1 X79.863 Y33.845 E0.33275
G1 X80.792 Y33.72 E0.36393
G1 X81.796 Y33.674 E0.39736
G1 X82.657 Y33.674 E0.426
G1 X82.858 Y33.676 E0.43268
G1 X84.013 Y33.697 E0.4711
G1 X86.103 Y33.682 E0.54062
G1 X86.6 Y33.673 E0.55715
G1 X87.538 Y33.695 E0.58836
G1 X88.341 Y33.779 E0.61521
G1 X88.965 Y33.867 E0.63617
G1 X91.596 Y34.231 E0.72451
G1 X94.124 Y34.508 E0.8091
G1 X96.619 Y34.711 E0.89236
G1 X99.134 Y34.844 E0.97612
G1 X101.664 Y34.906 E1.06029
G1 X104.158 Y34.897 E1.14325
G1 X107.168 Y34.796 E1.24342
G1 X107.582 Y34.79 E1.25719
G1 X108.305 Y34.793 E1.28123
G1 X108.469 Y34.795 E1.28669
G1 X109.636 Y34.817 E1.32551
G1 X112.361 Y34.791 E1.41615
G1 X112.863 Y34.797 E1.43285
G1 X113.502 Y34.82 E1.45411
G1 X113.665 Y34.827 E1.45954
G1 X115.137 Y34.902 E1.50856
G1 X117.62 Y34.957 E1.59117
G1 X120.171 Y34.942 E1.67602
G1 X122.667 Y34.855 E1.75908
G1 X125.149 Y34.7 E1.8418
G1 X127.706 Y34.466 E1.9272
G1 X130.15 Y34.174 E2.00906
G1 X131.671 Y33.938 E2.06026
G1 X131.838 Y33.913 E2.06587
G1 X133.237 Y33.718 E2.11285
G1 X134.171 Y33.629 E2.14406
G1 X134.834 Y33.613 E2.16612
G1 X136.084 Y33.622 E2.20769
G1 X139.223 Y33.614 E2.3121
G1 X139.608 Y33.607 E2.32491
G1 X140.545 Y33.629 E2.35608
G1 X141.157 Y33.687 E2.37652
G1 X141.287 Y33.703 E2.38088
G1 X142.212 Y33.858 E2.41208
G1 X143.12 Y34.09 E2.44325
G1 X144.006 Y34.399 E2.47446
G1 X144.862 Y34.782 E2.50565
G1 X145.359 Y35.047 E2.52438
G1 X145.534 Y35.146 E2.53107
G1 X146.33 Y35.642 E2.56226
G1 X147.081 Y36.204 E2.59346
G1 X147.781 Y36.828 E2.62465
G1 X148.425 Y37.51 E2.65585
G1 X149.009 Y38.244 E2.68704
G1 X149.463 Y38.917 E2.71405
G1 X149.581 Y39.107 E2.72148
G1 X150.041 Y39.924 E2.75267
G1 X150.43 Y40.777 E2.78385
G1 X150.745 Y41.66 E2.81503
G1 X150.984 Y42.567 E2.84623
G1 X151.144 Y43.491 E2.87742
G1 X151.231 Y44.568 E2.91336
G1 X151.258 Y45.436 E2.94224
G1 X151.263 Y45.778 E2.95362
G1 X151.262 Y71.895 E3.82227
G1 X151.261 Y72.05 E3.82743
G1 X151.252 Y72.688 E3.84865
G1 X151.199 Y73.625 E3.87986
G1 X151.13 Y74.175 E3.8983
G1 X150.898 Y75.712 E3.95
G1 X150.516 Y78.297 E4.03691
G1 X150.217 Y80.821 E4.12145
G1 X149.989 Y83.35 E4.2059
G1 X149.836 Y85.829 E4.28851
G1 X149.752 Y88.353 E4.37251
G1 X149.74 Y90.876 E4.45642
G1 X149.798 Y93.388 E4.53999
G1 X149.888 Y95.107 E4.59725
G1 X149.895 Y95.254 E4.60214
G1 X149.92 Y95.899 E4.62361
G1 X149.927 Y96.194 E4.63343
G1 X149.933 Y96.696 E4.65012
G1 X149.934 Y96.827 E4.65448
G1 X149.933 Y123.081 E5.52769
G1 X149.932 Y123.238 E5.53291
G1 X149.922 Y123.938 E5.5562
G1 X149.875 Y124.807 E5.58514
G1 X149.767 Y125.96 E5.62366
G1 X149.747 Y126.151 E5.63005
G1 X149.711 Y126.471 E5.64076
G1 X149.506 Y128.977 E5.72439
G1 X149.37 Y131.509 E5.80872
G1 X149.306 Y133.994 E5.8914
G1 X149.314 Y136.52 E5.97542
G1 X149.393 Y139.043 E6.05937
G1 X149.543 Y141.56 E6.14324
G1 X149.767 Y144.105 E6.22821
G1 X149.794 Y144.346 E6.23628
G1 X149.814 Y144.534 E6.24257
G1 X149.873 Y145.154 E6.26328
G1 X149.92 Y145.987 E6.29103
G1 X149.932 Y146.618 E6.31202
G1 X149.934 Y146.827 E6.31897
G1 X149.933 Y173.058 E7.19142
G1 X149.932 Y173.21 E7.19648
G1 X149.922 Y173.932 E7.22049
G1 X149.869 Y174.869 E7.25171
G1 X149.736 Y175.797 E7.28289
G1 X149.583 Y176.495 E7.30665
G1 X149.529 Y176.707 E7.31393
G1 X149.259 Y177.605 E7.34512
G1 X148.913 Y178.477 E7.37632
G1 X148.494 Y179.317 E7.40754
G1 X148.006 Y180.117 E7.43871
G1 X147.451 Y180.873 E7.4699
G1 X146.788 Y181.626 E7.50327
G1 X146.654 Y181.765 E7.50969
G1 X145.975 Y182.412 E7.54089
G1 X145.243 Y182.999 E7.5721
G1 X144.464 Y183.521 E7.60328
G1 X143.644 Y183.975 E7.63446
G1 X142.478 Y184.474 E7.67664
G1 X142.268 Y184.55 E7.68407
G1 X141.374 Y184.832 E7.71525
G1 X140.458 Y185.036 E7.74646
G1 X139.529 Y185.161 E7.77764
G1 X138.525 Y185.207 E7.81107
G1 X137.741 Y185.207 E7.83714
G1 X137.531 Y185.205 E7.84413
G1 X136.364 Y185.183 E7.88295
G1 X133.651 Y185.209 E7.97319
G1 X132.546 Y185.165 E8.00997
G1 X131.459 Y185.066 E8.04627
G1 X128.911 Y184.86 E8.1313
G1 X126.406 Y184.73 E8.21473
G1 X123.875 Y184.669 E8.29893
G1 X121.351 Y184.679 E8.38288
G1 X118.839 Y184.761 E8.46647
G1 X116.342 Y184.914 E8.54968
G1 X113.458 Y185.167 E8.64597
G1 X112.468 Y185.209 E8.67893
G1 X111.712 Y185.207 E8.70407
G1 X111.531 Y185.205 E8.71009
G1 X110.364 Y185.183 E8.74892
G1 X107.651 Y185.209 E8.83915
G1 X106.546 Y185.165 E8.87594
G1 X105.459 Y185.066 E8.91224
G1 X102.911 Y184.86 E8.99726
G1 X100.406 Y184.73 E9.08069
G1 X97.875 Y184.669 E9.1649
G1 X95.351 Y184.679 E9.24885
G1 X92.839 Y184.761 E9.33244
G1 X90.342 Y184.914 E9.41565
G1 X87.458 Y185.167 E9.51194
G1 X86.468 Y185.209 E9.54489
G1 X85.712 Y185.207 E9.57004
G1 X85.531 Y185.205 E9.57606
G1 X84.364 Y185.183 E9.61488
G1 X81.644 Y185.209 E9.70535
G1 X80.707 Y185.179 E9.73653
G1 X79.371 Y184.994 E9.78139
G1 X79.162 Y184.952 E9.78848
G1 X78.251 Y184.729 E9.81968
G1 X77.363 Y184.428 E9.85086
G1 X76.503 Y184.053 E9.88207
G1 X75.679 Y183.606 E9.91325
G1 X74.895 Y183.09 E9.94446
G1 X74.391 Y182.704 E9.96558
G1 X74.22 Y182.565 E9.97291
G1 X73.518 Y181.943 E10.0041
G1 X72.871 Y181.263 E10.03532
G1 X72.285 Y180.531 E10.06651
G1 X71.764 Y179.751 E10.09771
G1 X71.31 Y178.93 E10.12891
G1 X70.929 Y178.074 E10.16007
G1 X70.749 Y177.586 E10.17737
G1 X70.668 Y177.349 E10.1857
G1 X70.403 Y176.45 E10.21688
G1 X70.215 Y175.531 E10.24808
G1 X70.107 Y174.599 E10.27928
G1 X70.079 Y173.979 E10.29993
G1 X70.068 Y173.331 E10.32148
G1 X70.066 Y173.144 E10.3277
G1 X70.067 Y146.919 E11.19995
G1 X70.068 Y146.764 E11.2051
G1 X70.078 Y146.056 E11.22865
G1 X70.126 Y145.179 E11.25787
G1 X70.234 Y144.033 E11.29615
G1 X70.253 Y143.848 E11.30234
G1 X70.289 Y143.528 E11.31305
G1 X70.494 Y141.022 E11.39668
G1 X70.63 Y138.49 E11.48101
G1 X70.694 Y136.006 E11.56366
G1 X70.686 Y133.479 E11.64771
G1 X70.607 Y130.956 E11.73166
G1 X70.457 Y128.442 E11.81543
G1 X70.233 Y125.895 E11.90047
G1 X70.206 Y125.654 E11.90853
G1 X70.186 Y125.466 E11.91482
G1 X70.127 Y124.846 E11.93554
G1 X70.08 Y124.013 E11.96329
G1 X70.068 Y123.382 E11.98428
G1 X70.066 Y123.173 E11.99123
G1 X70.067 Y96.919 E12.86444
G1 X70.068 Y96.764 E12.8696
G1 X70.078 Y96.056 E12.89315
G1 X70.155 Y94.907 E12.93145
G1 X70.247 Y94.133 E12.95737
G1 X70.534 Y91.507 E13.04523
G1 X70.739 Y88.963 E13.13012
G1 X70.87 Y86.467 E13.21325
G1 X70.929 Y83.95 E13.29699
G1 X70.919 Y81.427 E13.38091
G1 X70.837 Y78.931 E13.46397
G1 X70.681 Y76.375 E13.54914
G1 X70.535 Y74.655 E13.60655
G1 X70.447 Y73.717 E13.63789
G1 X70.401 Y72.914 E13.66464
G1 X70.389 Y72.321 E13.68437
G1 X70.387 Y72.098 E13.69179
G1 X70.388 Y45.764 E14.56766
G1 X70.389 Y45.602 E14.57305
G1 X70.399 Y44.924 E14.5956
G1 X70.453 Y43.987 E14.62682
G1 X70.586 Y43.059 E14.658
G1 X70.786 Y42.192 E14.68759
G1 X70.84 Y41.994 E14.69442
G1 X71.125 Y41.1 E14.72563
G1 X71.485 Y40.234 E14.75682
G1 X71.918 Y39.402 E14.78801
G0 F6000 X72.29 Y39.558
G1 F1200 X72.787 Y38.783 E14.81864
G1 X73.349 Y38.054 E14.84925
G1 X73.847 Y37.504 E14.87393
G1 X73.981 Y37.366 E14.88033
G1 X74.651 Y36.734 E14.91096
G1 X75.372 Y36.162 E14.94157
G1 X76.141 Y35.655 E14.97221
G1 X76.951 Y35.217 E15.00283
G1 X77.979 Y34.783 E15.03995
G1 X78.189 Y34.707 E15.04738
G1 X79.067 Y34.431 E15.07799
G1 X79.966 Y34.233 E15.1086
G1 X80.879 Y34.114 E15.13923
G1 X81.796 Y34.074 E15.16976
G1 X82.657 Y34.074 E15.19839
G1 X82.851 Y34.076 E15.20485
G1 X84.009 Y34.097 E15.24337
G1 X86.114 Y34.082 E15.31338
G1 X86.607 Y34.073 E15.32978
G1 X87.528 Y34.096 E15.36042
G1 X88.285 Y34.175 E15.38574
G1 X88.91 Y34.263 E15.40673
G1 X91.568 Y34.631 E15.49598
G1 X94.081 Y34.906 E15.58006
G1 X96.601 Y35.111 E15.66415
G1 X99.103 Y35.243 E15.74749
G1 X101.655 Y35.306 E15.83239
G1 X104.174 Y35.297 E15.91617
G1 X107.182 Y35.196 E16.01628
G1 X107.58 Y35.19 E16.02952
G1 X108.303 Y35.193 E16.05356
G1 X108.462 Y35.195 E16.05885
G1 X109.598 Y35.217 E16.09664
G1 X112.365 Y35.19 E16.18868
G1 X112.848 Y35.197 E16.20474
G1 X113.487 Y35.22 E16.22601
G1 X113.645 Y35.227 E16.23127
G1 X115.108 Y35.301 E16.27999
G1 X117.613 Y35.357 E16.36333
G1 X120.153 Y35.342 E16.44781
G1 X122.706 Y35.253 E16.53278
G1 X125.209 Y35.096 E16.61619
G1 X127.718 Y34.868 E16.69999
G1 X130.206 Y34.57 E16.78333
G1 X131.733 Y34.333 E16.83472
G1 X131.894 Y34.309 E16.84014
G1 X133.293 Y34.114 E16.88712
G1 X134.209 Y34.027 E16.91772
G1 X134.831 Y34.013 E16.93842
G1 X136.082 Y34.022 E16.98003
G1 X139.23 Y34.014 E17.08473
G1 X139.615 Y34.007 E17.09754
G1 X140.535 Y34.03 E17.12814
G1 X141.108 Y34.084 E17.14729
G1 X141.238 Y34.1 E17.15164
G1 X142.146 Y34.252 E17.18226
G1 X143.037 Y34.483 E17.21288
G1 X143.905 Y34.789 E17.24349
G1 X144.743 Y35.17 E17.27411
G1 X145.162 Y35.395 E17.28993
G1 X145.337 Y35.494 E17.29661
G1 X146.118 Y35.982 E17.32724
G1 X146.854 Y36.535 E17.35786
G1 X147.539 Y37.151 E17.3885
G1 X148.167 Y37.823 E17.41909
G1 X148.735 Y38.548 E17.44973
G1 X149.123 Y39.128 E17.47294
G1 X149.241 Y39.318 E17.48038
G1 X149.692 Y40.12 E17.51098
G1 X150.072 Y40.959 E17.54161
G1 X150.378 Y41.827 E17.57222
G1 X150.607 Y42.719 E17.60285
G1 X150.758 Y43.627 E17.63347
G1 X150.831 Y44.58 E17.66526
G1 X150.858 Y45.448 E17.69414
G1 X150.863 Y45.778 E17.70512
G1 X150.862 Y71.895 E18.57377
G1 X150.861 Y72.045 E18.57876
G1 X150.852 Y72.683 E18.59999
G1 X150.799 Y73.602 E18.6306
G1 X150.734 Y74.115 E18.6478
G1 X150.502 Y75.652 E18.6995
G1 X150.116 Y78.267 E18.78742
G1 X149.819 Y80.77 E18.87125
G1 X149.592 Y83.288 E18.95534
G1 X149.436 Y85.828 E19.03998
G1 X149.352 Y88.337 E19.12348
G1 X149.34 Y90.884 E19.20819
G1 X149.398 Y93.383 E19.29133
G1 X149.489 Y95.128 E19.34945
G1 X149.495 Y95.269 E19.35414
G1 X149.52 Y95.914 E19.37561
G1 X149.527 Y96.198 E19.38506
G1 X149.533 Y96.7 E19.40176
G1 X149.534 Y96.827 E19.40598
G1 X149.533 Y123.081 E20.27919
G1 X149.532 Y123.232 E20.28422
G1 X149.522 Y123.932 E20.3075
G1 X149.477 Y124.77 E20.33541
G1 X149.369 Y125.923 E20.37393
G1 X149.35 Y126.107 E20.38008
G1 X149.314 Y126.427 E20.39079
G1 X149.107 Y128.959 E20.47529
G1 X148.971 Y131.478 E20.55919
G1 X148.907 Y134.021 E20.6438
G1 X148.915 Y136.533 E20.72735
G1 X148.994 Y139.08 E20.8121
G1 X149.143 Y141.583 E20.8955
G1 X149.365 Y144.104 E20.97968
G1 X149.397 Y144.391 E20.98928
G1 X149.415 Y144.572 E20.99533
G1 X149.474 Y145.192 E21.01604
G1 X149.52 Y145.994 E21.04276
G1 X149.532 Y146.625 E21.06375
G1 X149.534 Y146.827 E21.07047
G1 X149.533 Y173.058 E21.94292
G1 X149.532 Y173.205 E21.94781
G1 X149.522 Y173.927 E21.97183
G1 X149.469 Y174.846 E22.00244
G1 X149.337 Y175.757 E22.03306
G1 X149.195 Y176.396 E22.05483
G1 X149.141 Y176.608 E22.06211
G1 X148.875 Y177.49 E22.09275
G1 X148.534 Y178.345 E22.12336
G1 X148.12 Y179.167 E22.15397
G1 X147.636 Y179.95 E22.18459
G1 X147.086 Y180.689 E22.21523
G1 X146.5 Y181.349 E22.24459
G1 X146.366 Y181.488 E22.25101
G1 X145.699 Y182.122 E22.28161
G1 X144.979 Y182.696 E22.31224
G1 X144.213 Y183.206 E22.34285
G1 X143.405 Y183.647 E22.37346
G1 X142.342 Y184.098 E22.41187
G1 X142.132 Y184.174 E22.4193
G1 X141.254 Y184.45 E22.44991
G1 X140.355 Y184.648 E22.48053
G1 X139.442 Y184.767 E22.51115
G1 X138.525 Y184.807 E22.54168
G1 X137.741 Y184.807 E22.56776
G1 X137.538 Y184.805 E22.57451
G1 X136.402 Y184.783 E22.6123
G1 X133.647 Y184.81 E22.70393
G1 X132.583 Y184.766 E22.73935
G1 X131.538 Y184.671 E22.77425
G1 X128.963 Y184.463 E22.86018
G1 X126.402 Y184.329 E22.94547
G1 X123.882 Y184.269 E23.02931
G1 X121.336 Y184.279 E23.11399
G1 X118.835 Y184.361 E23.19722
G1 X116.284 Y184.517 E23.28223
G1 X113.423 Y184.768 E23.37775
G1 X112.469 Y184.809 E23.40951
G1 X111.713 Y184.807 E23.43465
G1 X111.538 Y184.805 E23.44047
G1 X110.402 Y184.783 E23.47826
G1 X107.647 Y184.81 E23.5699
G1 X106.583 Y184.766 E23.60532
G1 X105.538 Y184.671 E23.64022
G1 X102.963 Y184.463 E23.72614
G1 X100.402 Y184.329 E23.81144
G1 X97.882 Y184.269 E23.89528
G1 X95.336 Y184.279 E23.97996
G1 X92.835 Y184.361 E24.06319
G1 X90.284 Y184.517 E24.14819
G1 X87.423 Y184.768 E24.24372
G1 X86.469 Y184.809 E24.27548
G1 X85.713 Y184.807 E24.30062
G1 X85.538 Y184.805 E24.30644
G1 X84.402 Y184.783 E24.34423
G1 X81.641 Y184.81 E24.43607
G1 X80.72 Y184.778 E24.46672
G1 X79.45 Y184.602 E24.50936
G1 X79.241 Y184.56 E24.51645
G1 X78.347 Y184.34 E24.54707
G1 X77.475 Y184.043 E24.57771
G1 X76.633 Y183.671 E24.60833
G1 X75.826 Y183.228 E24.63895
G1 X75.061 Y182.716 E24.66957
G1 X74.643 Y182.393 E24.68714
G1 X74.472 Y182.254 E24.69447
G1 X73.783 Y181.643 E24.72509
G1 X73.151 Y180.975 E24.75568
G1 X72.578 Y180.253 E24.78634
G1 X72.07 Y179.486 E24.81694
G1 X71.631 Y178.676 E24.84758
G1 X71.128 Y177.457 E24.89144
G1 X71.047 Y177.22 E24.89977
G1 X70.787 Y176.337 E24.93038
G1 X70.605 Y175.434 E24.96102
G1 X70.502 Y174.519 E24.99165
G1 X70.479 Y173.972 E25.00986
G1 X70.468 Y173.324 E25.03141
G1 X70.466 Y173.144 E25.0374
G1 X70.467 Y146.919 E25.90965
G1 X70.468 Y146.769 E25.91464
G1 X70.478 Y146.061 E25.93819
G1 X70.524 Y145.216 E25.96633
G1 X70.632 Y144.07 E26.00462
G1 X70.65 Y143.892 E26.01057
G1 X70.686 Y143.572 E26.02128
G1 X70.893 Y141.04 E26.10577
G1 X71.029 Y138.521 E26.18968
G1 X71.093 Y135.979 E26.27425
G1 X71.085 Y133.466 E26.35784
G1 X71.006 Y130.921 E26.44252
G1 X70.857 Y128.417 E26.52595
G1 X70.635 Y125.896 E26.61013
G1 X70.603 Y125.609 E26.61973
G1 X70.585 Y125.428 E26.62578
G1 X70.526 Y124.808 E26.6465
G1 X70.48 Y124.006 E26.67322
G1 X70.468 Y123.375 E26.69421
G1 X70.466 Y123.173 E26.70093
G1 X70.467 Y96.919 E27.57414
G1 X70.468 Y96.769 E27.57913
G1 X70.478 Y96.061 E27.60268
G1 X70.552 Y94.954 E27.63958
G1 X70.656 Y94.083 E27.66875
G1 X70.932 Y91.55 E27.7535
G1 X71.139 Y88.98 E27.83925
G1 X71.269 Y86.497 E27.92195
G1 X71.329 Y83.958 E28.00642
G1 X71.319 Y81.413 E28.09107
G1 X71.236 Y78.894 E28.1749
G1 X71.081 Y76.357 E28.25944
G1 X70.942 Y74.715 E28.31425
G1 X70.845 Y73.68 E28.34882
G1 X70.801 Y72.905 E28.37464
G1 X70.789 Y72.312 E28.39437
G1 X70.787 Y72.098 E28.40148
G1 X70.788 Y45.764 E29.27736
G1 X70.789 Y45.608 E29.28255
G1 X70.799 Y44.93 E29.3051
G1 X70.853 Y44.011 E29.33572
G1 X70.986 Y43.1 E29.36634
G1 X71.172 Y42.297 E29.39375
G1 X71.226 Y42.099 E29.40058
G1 X71.506 Y41.222 E29.4312
G1 X71.862 Y40.373 E29.46182
G1 X72.29 Y39.558 E29.49244
G0 F6000 X72.661 Y39.714
G1 F1200 X73.154 Y38.957 E29.52248
G1 X73.711 Y38.246 E29.55252
G1 X74.134 Y37.782 E29.57341
G1 X74.268 Y37.644 E29.5798
G1 X74.925 Y37.025 E29.60983
G1 X75.635 Y36.466 E29.63988
G1 X76.391 Y35.972 E29.66992
G1 X77.188 Y35.547 E29.69996
G1 X78.115 Y35.159 E29.73339
G1 X78.325 Y35.083 E29.74081
G1 X79.187 Y34.813 E29.77086
G1 X80.069 Y34.621 E29.80088
G1 X80.965 Y34.508 E29.83092
G1 X81.796 Y34.474 E29.85858
G1 X82.657 Y34.474 E29.88722
G1 X82.844 Y34.476 E29.89344
G1 X84.004 Y34.497 E29.93202
G1 X86.125 Y34.482 E30.00257
G1 X86.615 Y34.473 E30.01887
G1 X87.518 Y34.496 E30.04891
G1 X88.229 Y34.571 E30.07269
G1 X88.856 Y34.659 E30.09375
G1 X91.542 Y35.031 E30.18394
G1 X94.044 Y35.305 E30.26766
G1 X96.546 Y35.508 E30.35115
G1 X99.108 Y35.644 E30.43648
G1 X101.647 Y35.706 E30.52095
G1 X104.188 Y35.697 E30.60547
G1 X107.195 Y35.596 E30.70554
G1 X107.578 Y35.59 E30.71828
